X: 18181
T: Humours Of Failure, The
R: jig
M: 6/8
K: Adorian
ABc agf|efd cBA|GAB gdc|Bdc BAG|
ABc agf|efg a2 g|fag fdc|BdB A3:|
aAa gfg|aed cBA|gdg fef|gdc BAG|
Ace agf|efg a2 g|fag fdc|BdB A3:|

